X:10091
T:Maid behind the Bar
T:Barmaid
R:Reel
D:Stockton's Wing.
Z:id:hn-reel-96
M:C|
L:1/8
Q:1/4=200
K:D
DE|FAAB AFED|FAAB ABde|fBBA Bcde|f2af edBA|
FAAB AFED|FAAB ABde|fBBA BcdB|AFEF D2:|
de|:faag fede|fdad fd~d2|efga beef|gebe gfeg|
faaf bfaf|defd e2de|fBBA BcdB|1 AFEF D3e:|2 AFEF D2DE|]
